X: 27113
T: Miss Maria Dundas
R: reel
M: 4/4
K: Gmajor
|g|{^c}dG (3GGG {c}d2Bd|egfa {^c}dBBg|{^c}dG (3GGG {c}d2Bd|egdB (3AAA A:|
a|(3gab ab {f}geeg|dgBg dBBd|(3gab ab {f}geeg|dgdB (3AAA {g}a2|
(3gab ab {f}geeg|dgBg {F}GABd|gbab gaeg|dBgB (3AAA A||

